public/svg/pnpm.svg

<svg width="177" height="177" viewBox="0 0 177 177" fill="none" xmlns="http://www.w3.org/2000/svg">
  <path d="M166.325 59H117.545V10.2195H166.325V59Z" fill="#F9AD00" />
  <path d="M112.657 59H63.8765V10.2195H112.657V59Z" fill="#F9AD00" />
  <path d="M58.9984 59H10.218V10.2195H58.9984V59Z" fill="#F9AD00" />
  <path d="M58.7805 112.78H10V64H58.7805V112.78Z" fill="white" />
  <path d="M166.325 112.659H117.545V63.8781H166.325V112.659Z" fill="#F9AD00" />
  <path d="M112.657 112.659H63.8765V63.8781H112.657V112.659Z" fill="#4E4E4E" />
  <path d="M112.657 166.317H63.8765V117.537H112.657V166.317Z" fill="#4E4E4E" />
  <path d="M166.325 166.317H117.545V117.537H166.325V166.317Z" fill="#4E4E4E" />
  <path d="M58.9984 166.317H10.218V117.537H58.9984V166.317Z" fill="#4E4E4E" />
</svg>

<svg width="177" height="177" viewBox="0 0 177 177" fill="none" xmlns="http://www.w3.org/2000/svg"><path d="M166.325 59h-48.78V10.22h48.78V59zm-53.668 0h-48.78V10.22h48.78V59zm-53.659 0h-48.78V10.22h48.78V59z" fill="#F9AD00"/><path d="M58.78 112.78H10V64h48.78v48.78z" fill="#fff"/><path d="M166.325 112.659h-48.78v-48.78h48.78v48.78z" fill="#F9AD00"/><path d="M112.657 112.659h-48.78v-48.78h48.78v48.78zm0 53.658h-48.78v-48.78h48.78v48.78zm53.668 0h-48.78v-48.78h48.78v48.78zm-107.327 0h-48.78v-48.78h48.78v48.78z" fill="#4E4E4E"/></svg>
